X: 24740
T: Madam Parisot's
R: hornpipe
M: 4/4
K: Dmajor
A2|dcde fefd|efgf e2 af|dcde fefd|edcB A3 A|
dcde fefd|efgd e2 fg|afdf gedc|d2 f2 d2:|
cd|edcd Bc A2|fede cd B2|bagf bagf|bagf gfge|
dcdc defe|fdef gfe2|afdf gecA|d2 f2 d2:|

